src/view/frontend/web/svg/heroicons/solid/eye-off.svg

<svg viewBox="0 0 20 20" fill="currentColor" xmlns="http://www.w3.org/2000/svg">
<path fill-rule="evenodd" clip-rule="evenodd" d="M3.70711 2.29289C3.31658 1.90237 2.68342 1.90237 2.29289 2.29289C1.90237 2.68342 1.90237 3.31658 2.29289 3.70711L16.2929 17.7071C16.6834 18.0976 17.3166 18.0976 17.7071 17.7071C18.0976 17.3166 18.0976 16.6834 17.7071 16.2929L16.2339 14.8197C17.7715 13.5924 18.939 11.9211 19.5424 9.99996C18.2681 5.94288 14.4778 3 10.0002 3C8.37665 3 6.84344 3.38692 5.48779 4.07358L3.70711 2.29289ZM7.96813 6.55391L9.48201 8.0678C9.6473 8.02358 9.82102 8 10.0003 8C11.1048 8 12.0003 8.89543 12.0003 10C12.0003 10.1792 11.9767 10.353 11.9325 10.5182L13.4463 12.0321C13.7983 11.4366 14.0003 10.7419 14.0003 10C14.0003 7.79086 12.2094 6 10.0003 6C9.25838 6 8.56367 6.20197 7.96813 6.55391Z" />
<path d="M12.4541 16.6967L9.74965 13.9923C7.74013 13.8681 6.1322 12.2601 6.00798 10.2506L2.33492 6.57754C1.50063 7.57223 0.856368 8.73169 0.458008 10C1.73228 14.0571 5.52257 17 10.0002 17C10.8469 17 11.6689 16.8948 12.4541 16.6967Z" />
</svg>

<svg xmlns="http://www.w3.org/2000/svg" viewBox="0 0 20 20" fill="currentColor">
  <path fill-rule="evenodd" d="M3.707 2.293a1 1 0 00-1.414 1.414l14 14a1 1 0 001.414-1.414l-1.473-1.473A10.014 10.014 0 0019.542 10C18.268 5.943 14.478 3 10 3a9.958 9.958 0 00-4.512 1.074l-1.78-1.781zm4.261 4.26l1.514 1.515a2.003 2.003 0 012.45 2.45l1.514 1.514a4 4 0 00-5.478-5.478z" clip-rule="evenodd"/>
  <path d="M12.454 16.697L9.75 13.992a4 4 0 01-3.742-3.741L2.335 6.578A9.98 9.98 0 00.458 10c1.274 4.057 5.065 7 9.542 7 .847 0 1.669-.105 2.454-.303z"/>
</svg>
